icons/badge/question/shield.svg

<svg width="32" height="32" viewBox="0 0 32 32" fill="none" xmlns="http://www.w3.org/2000/svg">
<path fill-rule="evenodd" clip-rule="evenodd" d="M15.4807 1.1041C15.8208 1.01262 16.1792 1.01262 16.5193 1.1041L28.5193 4.33085C29.3929 4.56573 30 5.35769 30 6.26224V12C30 21.4849 23.6659 28.3497 16.2747 30.4615L16 30.54L15.7253 30.4615C8.33412 28.3497 2 21.4849 2 12V6.26224C2 5.35769 2.60713 4.56573 3.48066 4.33085L15.4807 1.1041ZM16 3.03549L4 6.26224L4 12C4 20.3968 9.50964 26.4794 16 28.4573C22.4904 26.4794 28 20.3968 28 12L28 6.26224L16 3.03549ZM17.5 20V23H14.5V20H17.5ZM14 13C14 12.1542 14.2108 11.7034 14.4571 11.4571C14.7034 11.2108 15.1541 11 16 11C16.9753 11 17.4308 11.1356 17.65 11.3C17.7914 11.406 18 11.6516 18 12.5C18 12.8955 17.8915 13.1089 17.7573 13.273C17.587 13.4812 17.3437 13.6524 16.9453 13.918L16.905 13.9448L16.905 13.9448C16.5558 14.1773 16.0723 14.4992 15.6948 14.9605C15.2665 15.4839 15 16.1455 15 17V18H17V17C17 16.6046 17.1085 16.3911 17.2427 16.227C17.413 16.0189 17.6563 15.8477 18.0547 15.5821L18.095 15.5552C18.4442 15.3227 18.9277 15.0008 19.3052 14.5395C19.7335 14.0161 20 13.3546 20 12.5C20 11.3484 19.7086 10.344 18.85 9.70001C18.0692 9.1144 17.0247 9.00001 16 9.00001C14.8459 9.00001 13.7966 9.28922 13.0429 10.0429C12.2892 10.7966 12 11.8459 12 13H14Z" fill="black"/>
</svg>

<svg viewBox="0 0 32 32" xmlns="http://www.w3.org/2000/svg"><path fill-rule="evenodd" d="M15.48 1.104a2 2 0 011.04 0l12 3.227A2 2 0 0130 6.262V12c0 9.485-6.334 16.35-13.725 18.462L16 30.54l-.275-.078C8.335 28.35 2 21.485 2 12V6.262a2 2 0 011.48-1.931l12-3.227zM16 3.035L4 6.262V12c0 8.397 5.51 14.48 12 16.457C22.49 26.48 28 20.397 28 12V6.262L16 3.035zM17.5 20v3h-3v-3h3zM14 13c0-.846.21-1.297.457-1.543.246-.246.697-.457 1.543-.457.975 0 1.43.136 1.65.3.141.106.35.352.35 1.2 0 .396-.108.609-.243.773-.17.208-.413.38-.812.645l-.04.027c-.35.232-.833.554-1.21 1.015-.428.524-.695 1.185-.695 2.04v1h2v-1c0-.395.108-.609.243-.773.17-.208.413-.38.812-.645l.04-.027c.35-.232.833-.554 1.21-1.015.428-.524.695-1.185.695-2.04 0-1.152-.291-2.156-1.15-2.8-.78-.586-1.825-.7-2.85-.7-1.154 0-2.203.29-2.957 1.043C12.289 10.797 12 11.846 12 13h2z"/></svg>
